!!!!SEGMENT: pl-kozmzk--mzk-m-26--003_stefani-jozef--msza-swieta-graduale.krn
!!!cenid: 18xx:2947
!!!COM: Stefani, Józef
!!!COM-rismid: pe30024097
!!!CDT: 1800/04/16-1876/03/19
!!!CNT: Polish
!!!OPR: Msza Święta
!!!OTL: Graduale
!!!OMV: 003
!!!PDT:
!!!AGN: Sacred; Mass
!!!SMS-siglum: PL-KOZmzk
!!!SMS-shelfmark: mzk/m/26
!!!SMS-shelfwork: 001-003 M
!!!SMS-variant:
!!!SMS-altvar:
!!!NIFC-rismid: 1001024881
!!!URL-scan: https://repozytorium.nifc.pl/islandora/object/pl-kozmzk%3A12693/datastream/PDF/view
!!!ONB-nifc: UWAGA: Części mszy: 1. Kyrie, 2. Gloria, 3. Graduale, 4. Credo, 5. Offertorium, 6. Sanctus, 7. Benedictus, 8. Agnus Dei, 9. Dona nobis
!!!OMD: Andante
!!!AIN: 4 empty
!!!key:
**kern	**kern	**kern	**text	**text	**dynam	**kern	**text	**text	**dynam	**kern	**text	**text	**dynam
*group2	*group2	*group1	*	*	*	*group1	*	*	*	*group1	*	*	*
*part4	*part4	*part3	*part3	*part3	*part3	*part2	*part2	*part2	*part2	*part1	*part1	*part1	*part1
*staff5	*staff4	*staff3	*staff3	*staff3	*	*staff2	*staff2	*staff2	*	*staff1	*staff1	*staff1	*
*Iempty	*Iempty	*Iempty	*	*	*	*Iempty	*	*	*	*Iempty	*	*	*
*I"	*I"	*I"	*	*	*	*I"	*	*	*	*I"	*	*	*
*clefF4	*clefG2	*clefF4	*	*	*	*clefC4	*	*	*	*clefC4	*	*	*
*k[b-e-]	*k[b-e-]	*k[b-e-]	*	*	*	*k[b-e-]	*	*	*	*k[b-e-]	*	*	*
*B-:	*B-:	*B-:	*	*	*	*B-:	*	*	*	*B-:	*	*	*
*M3/4	*M3/4	*M3/4	*	*	*	*M3/4	*	*	*	*M3/4	*	*	*
*2\right	*2\right	*2\right	*	*	*	*2\right	*	*	*	*2\right	*	*	*
=1	=1	=1	=1	=1	=1	=1	=1	=1	=1	=1	=1	=1	=1
!	!	!	!	!	!	!LO:TX:b:t=strofa 2.)	!	!	!	!LO:TX:b:t=strofa 1.)	!	!	!
4BB-\ 4B-	4d/ 4b-	4r	.	.	.	4r	.	.	.	4r	.	.	.
4AA\ 4A	4e-/ 4cc	4r	.	.	.	4r	.	.	.	4r	.	.	.
!	!	!	!	!	!LO:DY:b	!	!	!	!	!	!	!	!
4AA-X\ 4A-X	4f/ 4b- 4dd	4B-\	.	.	f	4B-\	U-	.	f	4B-\	Po-	.	f
=2!|:	=2!|:	=2!|:	=2!|:	=2!|:	=2!|:	=2!|:	=2!|:	=2!|:	=2!|:	=2!|:	=2!|:	=2!|:	=2!|:
2GG/ 2G	2e-/ 2b- 2ee-	2G\	.	.	.	2B-\	-znaj-	.	.	2e-\	-wstań-	.	.
[4FF/ [4F	4f/ 4b- 4dd	4F\	.	.	.	4B-\	-cie	.	.	4d\	-cie	.	.
=3	=3	=3	=3	=3	=3	=3	=3	=3	=3	=3	=3	=3	=3
*	*^	*	*	*	*	*	*	*	*	*	*	*	*
4FF/] 4F]	4a/ 4cc	4f\	4F\	.	.	.	4A\	praw-	.	.	4c\	świa-	.	.
4.BB-/	4.dd/	2b-\	4.BB-/	.	.	.	4.B-\	-dę	.	.	4.d\	-tło-	.	.
8D\	8ff/	.	8D\	.	.	.	8B-\	wtem	.	.	8f\	-ści	.	.
=4	=4	=4	=4	=4	=4	=4	=4	=4	=4	=4	=4	=4	=4	=4
!	!	!	!	!	!	!	!	!	!	!	!	!	!	!LO:DY:a
2F\	2a/ 2cc	2.f\	2.F\	.	.	.	(2A\	sło-	.	.	(2c\	Sy-	.	<
!	!	!	!	!	!	!	!	!	!	!	!	!	!	!LO:DY:a
[4FF/ [4F	8.cc\L 8.ee-	.	.	.	.	.	8.c\L	.	.	.	8.e-\L	.	.	[ >
.	16b-\Jk 16dd	.	.	.	.	.	16B-\Jk)	.	.	.	16d\Jk)	.	.	]]
=5	=5	=5	=5	=5	=5	=5	=5	=5	=5	=5	=5	=5	=5	=5
2FF/] 2F]	2a/ 2cc	2f\	2F\	.	.	.	2A\	-wie	.	.	2c\	-ny	.	.
4FF/ 4F	4a/ 4cc	4f\	4F\	.	.	.	4A\	My	.	.	4c\	Po-	.	.
!!LO:LB:g=original
=6	=6	=6	=6	=6	=6	=6	=6	=6	=6	=6	=6	=6	=6	=6
!	!	!	!	!	!	!LO:DY:a	!	!	!	!LO:DY:a	!	!	!	!LO:DY:a
2BB-/	2b-/ 2dd-X	2f\	2BB-/	wszy-	.	p	2B-\	.	.	p	2d-X\	-kor-	.	p
4D-X\	4b-/	4f\	4D-X/	-scy	.	.	4F/	.	.	.	4B-\	-nem	.	.
=7	=7	=7	=7	=7	=7	=7	=7	=7	=7	=7	=7	=7	=7	=7
[2E-\	[2cc/	[2g-X\	4E-\	Bra-	.	.	4G-X/	.	.	.	4c\	czu-	.	.
.	.	.	4.E-\	-cia	.	.	4.G-/	.	.	.	4.c\	-ciem	.	.
8E-\L]	8cc/L]	8g-\L]	.	.	.	.	.	.	.	.	.	.	.	.
8En\J	8b-/J	8gn\J	8En\	je-	.	.	8Gn/	.	.	.	8B-\	prze-	.	.
=8	=8	=8	=8	=8	=8	=8	=8	=8	=8	=8	=8	=8	=8	=8
2F\	2a/	[2f\	2.F\	-steś-	.	.	(2F/	.	.	.	(2A\	-ię-	.	.
4FF/ 4F	4a/ 4cc	4f\]	.	.	.	.	4A/)	.	.	.	4c\)	.	.	.
*	*v	*v	*	*	*	*	*	*	*	*	*	*	*	*
=9	=9	=9	=9	=9	=9	=9	=9	=9	=9	=9	=9	=9	=9
2FF/ 2F	2f/ 2a 2cc	2F\	-my	.	.	2A\	.	.	.	2c\	-te	.	.
4FF/ 4F	4r	4F\	1. Pan	2	f	4r	.	.	.	4r	.	.	.
=10	=10	=10	=10	=10	=10	=10	=10	=10	=10	=10	=10	=10	=10
2BB-\ 2B-	4r	2B-\	zgór-	.	.	2.r	.	.	.	4r	.	.	.
.	4r	.	.	.	.	.	.	.	.	4r	.	.	.
4AA/ 4A	4f/ 4ff/	4A\	-néj	.	.	.	.	.	.	(4f\	Nie-	Je-	.
=11	=11	=11	=11	=11	=11	=11	=11	=11	=11	=11	=11	=11	=11
2GG/ 2G	2e-/ 2ee-	4G\	Nie-	.	.	4r	.	.	.	4e-\)	.	.	.
.	.	4G\	-ba	.	.	4r	.	.	.	4e-\	-ba	-go	.
4FF/ 4F	4f/ 4b- 4dd	4F\	kra	.	.	4B-\	kra	sy	.	4d\	kra-	sy-	.
!!LO:LB:g=original
=12	=12	=12	=12	=12	=12	=12	=12	=12	=12	=12	=12	=12	=12
*	*^	*	*	*	*	*	*	*	*	*	*	*	*
2.EE-/ 2.E-	8.cc/L	2.g\	2.E-\	.	.	.	2.G/	.	.	.	(8.c\L	-i-	-no-	.
.	32dd/LL	.	.	.	.	.	.	.	.	.	32d\LL	.	.	.
.	32cc/JJJ	.	.	.	.	.	.	.	.	.	32c\JJJ	.	.	.
.	4b-/	.	.	.	.	.	.	.	.	.	4B-\)	.	.	.
.	4cc/	.	.	.	.	.	.	.	.	.	4c\	.	.	.
*	*v	*v	*	*	*	*	*	*	*	*	*	*	*	*
=13	=13	=13	=13	=13	=13	=13	=13	=13	=13	=13	=13	=13	=13
2DD/ 2D	2f#X/ 2dd	2D\	.	.	.	2F#X/	.	.	.	2d\	-ny	-wie	.
4FF#X/ 4F#X	4a/ 4cc	4F#X\	O-	Mi-	.	4A/	O	.	.	4c\	o	.	.
=14	=14	=14	=14	=14	=14	=14	=14	=14	=14	=14	=14	=14	=14
*	*^	*	*	*	*	*	*	*	*	*	*	*	*
2GG/ 2G	2b-/	2.d\ 2.g	4G\	-gła-	-ło-	.	4G/	.	.	.	4B-\	.	.	.
.	.	.	4G\	-sza	-ścią	.	4G/	.	.	.	4B-\	.	.	.
4FFn/ 4Fn	4bn/	.	4Fn\	o-	mi-	.	4G/	.	.	.	4Bn\	.	.	.
=15	=15	=15	=15	=15	=15	=15	=15	=15	=15	=15	=15	=15	=15	=15
2EE-/ 2E-	2cc/	2.e-\ 2.g	2E-\	-gła-	-ło-	.	2G/	.	.	.	2c\	.	.	.
4CC/ 4C	4ee-/	.	4C/	-sza	-ścią	.	4G/	.	.	.	4e-\	.	.	.
=16	=16	=16	=16	=16	=16	=16	=16	=16	=16	=16	=16	=16	=16	=16
!	!	!	!	!	!	!LO:DY:a	!	!	!	!LO:DY:a	!	!	!	!LO:DY:a
2.FF/ 2.F	4.b-/ 4.dd	2.f\	[2F\	na-	chwa-	p	4.B-\	.	.	p	(4.d\	.	.	p
.	16a/LL 16cc	.	.	.	.	.	16A\LL	.	.	.	16c\LL	.	.	.
.	16b-/JJ 16dd	.	.	.	.	.	16B-\JJ	.	.	.	16d\JJ)	.	.	.
.	8.cc/L 8.ee-	.	8.F\]	-u-	-łę	.	8.c\	.	.	.	8.e-\	.	.	.
.	16a/Jk 16ff	.	16F\	-ki	mu	.	16A\	.	.	.	16f\	.	.	.
*	*v	*v	*	*	*	*	*	*	*	*	*	*	*	*
!!LO:PB:g=original
=17	=17	=17	=17	=17	=17	=17	=17	=17	=17	=17	=17	=17	=17
4BB-/ 4F	4f/ 4b- 4dd	4BB-/	.	.	.	4B-\	.	.	.	4d\	świę-	.	.
8.BB-/L 8.F	8.f/L 8.b- 8.dd	8BB-/	.	.	.	8B-\	.	.	.	8d\	-te	.	.
.	.	8r	.	.	.	8r	.	.	.	8r	.	.	.
16BB-/K 16B-	16d/K 16b-	.	.	.	.	.	.	.	.	.	.	.	.
8.AA/ 8.A	8.e-/ 8.cc	8.r	.	.	.	8.r	.	.	.	8.r	.	.	.
16AA-X/Jk 16A-X	16f/Jk 16b- 16dd	16B-\	.	.	.	16B-\	.	.	.	16B-\	U	.	.
=18:|!	=18:|!	=18:|!	=18:|!	=18:|!	=18:|!	=18:|!	=18:|!	=18:|!	=18:|!	=18:|!	=18:|!	=18:|!	=18:|!
*^	*	*	*	*	*	*	*	*	*	*	*	*	*
2B-/	2.BB-\	2b-\	4B-\	.	.	.	4B-\	.	.	.	4B-\	wznie-	.	.
.	.	.	8BB-/	.	.	.	8B-\	.	.	.	8B-\	-smy	.	.
.	.	.	8r	.	.	.	8r	.	.	.	8r	.	.	.
4A-X/	.	4f/ 4b- 4dd	4r	.	.	.	4r	.	.	.	4r	.	.	.
=19	=19	=19	=19	=19	=19	=19	=19	=19	=19	=19	=19	=19	=19	=19
2G/	2.BB-\	2e-/ 2b- 2ee-	2.r	.	.	.	2.r	.	.	.	2.r	.	.	.
4F/	.	4f/ 4b- 4dd	.	.	.	.	.	.	.	.	.	.	.	.
*v	*v	*	*	*	*	*	*	*	*	*	*	*	*	*
=20	=20	=20	=20	=20	=20	=20	=20	=20	=20	=20	=20	=20	=20
2E-\	4g/ 4cc	2.r	.	.	.	2.r	.	.	.	2.r	.	.	.
.	4g/	.	.	.	.	.	.	.	.	.	.	.	.
4F\	4e-/ 4f 4a	.	.	.	.	.	.	.	.	.	.	.	.
=21	=21	=21	=21	=21	=21	=21	=21	=21	=21	=21	=21	=21	=21
[>2.BB-\ [2.F	2.f/ 2.g 2.a 2.cc	2.r	.	.	.	2.r	.	.	.	2.r	.	.	.
=22	=22	=22	=22	=22	=22	=22	=22	=22	=22	=22	=22	=22	=22
2.BB-\] 2.F]	2.d/ 2.f 2.b-	2.r	.	.	.	2.r	.	.	.	2.r	.	.	.
==	==	==	==	==	==	==	==	==	==	==	==	==	==
*-	*-	*-	*-	*-	*-	*-	*-	*-	*-	*-	*-	*-	*-
!!!system-decoration: g1{(g2)}
!!!ENC: Andrzej Gręziak
!!!END: 2021-08-12
!!!ENC: Kamil Watkowski
!!!END: 2021-09-09
!!!RDF**kern: > = above
!!!RDF**kern: < = below
